_includes/icons/color-switzerland.svg

<svg fill="#666" height="50" viewBox="0 0 48 48" width="50" xmlns="http://www.w3.org/2000/svg"><path d="m2 9h44v30h-44z" fill="#ff3d00"/><g fill="#fff"><path d="m21 15h6v18h-6z"/><path d="m15 21h18v6h-18z"/></g></svg>

<svg xmlns="http://www.w3.org/2000/svg" viewBox="0 0 48 48" width="50" height="50" fill="#666"><path d="M 2 9 L 46 9 L 46 39 L 2 39 Z" fill="#ff3d00"/><path d="M 21 15 L 27 15 L 27 33 L 21 33 Z" fill="#fff"/><path d="M 15 21 L 33 21 L 33 27 L 15 27 Z" fill="#fff"/></svg>
